archcraft-icons-qogir/files/Qogir-Dark/16/actions/view-group.svg

<svg version="1.1" viewBox="0 0 16 16" xmlns="http://www.w3.org/2000/svg">
 <defs>
  <style id="current-color-scheme" type="text/css">.ColorScheme-Text {
        color:#d3dae3;
      }</style>
 </defs>
 <path class="ColorScheme-Text" d="m4 6v2h2v-2zm3 0v2h2v-2zm3 0v2h2v-2zm-6 4v2h2v-2zm3 0v2h2v-2z" fill="currentColor"/>
 <path class="ColorScheme-Text" d="m3 1c-1.108 0-2 0.892-2 2v10c0 1.108 0.892 2 2 2h10c1.108 0 2-0.892 2-2v-10c0-1.108-0.892-2-2-2zm0 3h10c0.554 0 1 0.446 1 1v8c0 0.554-0.446 1-1 1h-10c-0.554 0-1-0.446-1-1v-8c0-0.554 0.446-1 1-1z" fill="currentColor"/>
</svg>

<svg xmlns="http://www.w3.org/2000/svg" viewBox="0 0 16 16">
  <defs id="defs3051">
    <style type="text/css" id="current-color-scheme">
      .ColorScheme-Text {
        color:#d3dae3;
      }
      </style>
  </defs>
 <path style="fill:currentColor;fill-opacity:1;stroke:none" 
       d="M 2 2 L 2 5 L 2 14 L 3 14 L 14 14 L 14 13 L 14 2 L 3 2 L 2 2 z M 3 5 L 13 5 L 13 13 L 3 13 L 3 5 z M 4 6 L 4 8 L 6 8 L 6 6 L 4 6 z M 7 6 L 7 8 L 9 8 L 9 6 L 7 6 z M 10 6 L 10 8 L 12 8 L 12 6 L 10 6 z M 4 10 L 4 12 L 6 12 L 6 10 L 4 10 z M 7 10 L 7 12 L 9 12 L 9 10 L 7 10 z "
     class="ColorScheme-Text"
     />
</svg>
